X: 2
T: Coming of Spring, The
T: Paddy O'Brien's (because there are so many, I haven't added this in the alternate titles...)
C: Paddy O'Brien
M: 6/8
L: 1/8
R: jig
K: Edor
|: A |\
BEE B2 A | BdB BAG | FEF DFA | dfe dBA |
BEE B2 A | Bef gfe | dc/B/A FGA | BGE E2 :|
|: F |\ 
GEF G2 A | B2 A Bec | dAA BAG | F3 DEF |
G2 E FGA | Bef gfe | dc/B/A FGA | BEE E2 :|
|:e/f/ |\ 
g2 e eBe | geg bag | f2 d dcd | AFA def |
[1 g2 e eBe | geg bag | fed fg/a/f | ged e2 :|
[2 g2 e fed | Bec dfe | dc/B/A FGA | BGE E2 |]
